src/pos-icons/format-header-increase.svg

<svg height="24" viewBox="0 0 24 24" width="24" xmlns="http://www.w3.org/2000/svg"><path d="m4 4h2v6h4v-6h2v14h-2v-6h-4v6h-2zm10.59 3.41 3.58 3.59-3.58 3.59 1.41 1.41 5-5-5-5z"/></svg>

<?xml version="1.0" encoding="UTF-8"?><!DOCTYPE svg PUBLIC "-//W3C//DTD SVG 1.1//EN" "http://www.w3.org/Graphics/SVG/1.1/DTD/svg11.dtd"><svg xmlns="http://www.w3.org/2000/svg" xmlns:xlink="http://www.w3.org/1999/xlink" version="1.1" id="mdi-format-header-increase" width="24" height="24" viewBox="0 0 24 24"><path d="M4,4H6V10H10V4H12V18H10V12H6V18H4V4M14.59,7.41L18.17,11L14.59,14.59L16,16L21,11L16,6L14.59,7.41Z" /></svg>
